packages/kaspersky-hexa-ui-icons/src/iconsSVGs/24/Linux.svg

<svg width="24" height="24" viewBox="0 0 24 24" fill="none" xmlns="http://www.w3.org/2000/svg">
<path fill-rule="evenodd" clip-rule="evenodd" d="M20.0105 18.0583C19.424 17.8181 19.1732 17.4994 19.1974 17.0238C19.2224 16.4686 18.9075 16.062 18.7579 15.9013C18.8482 15.5562 19.1123 14.362 18.7581 13.3249C18.3775 12.2147 17.2156 10.5191 16.0166 8.85244C15.5258 8.16798 15.5026 7.42397 15.4758 6.56246L15.4757 6.56157C15.45 5.74008 15.4209 4.80895 14.9628 3.77391C14.4646 2.6465 13.4649 2 12.2198 2C11.4791 2 10.7189 2.23148 10.1338 2.63502C8.93578 3.46184 9.09414 5.26454 9.19893 6.4574C9.21329 6.62075 9.2268 6.77505 9.23467 6.90679C9.30444 8.07506 9.24096 8.6908 9.15795 8.87795C9.10441 8.99986 8.84151 9.34612 8.56269 9.71335L8.55882 9.71845C8.26974 10.0992 7.94221 10.5305 7.67367 10.9325C7.35284 11.4169 7.09384 12.1572 6.84336 12.8732L6.84329 12.8734C6.66002 13.3973 6.48691 13.8922 6.31839 14.1879C5.99898 14.7568 6.07845 15.2873 6.14481 15.5325C6.02389 15.6165 5.8492 15.7819 5.70173 16.0936C5.5235 16.4739 5.16185 16.6783 4.40985 16.8229C4.06427 16.8936 3.82598 17.0389 3.70139 17.2548C3.52007 17.569 3.61883 17.9637 3.70893 18.2335C3.84204 18.6301 3.75909 18.8811 3.60827 19.3368L3.60648 19.3423C3.57217 19.4461 3.53342 19.5634 3.49417 19.6924C3.43129 19.8997 3.45397 20.0882 3.56145 20.2526C3.84545 20.6867 4.67418 20.8399 5.5273 20.9406C6.03668 21.001 6.59419 21.2048 7.13341 21.4019L7.13414 21.4022C7.66224 21.5951 8.20827 21.7947 8.70463 21.8552C8.78011 21.8647 8.85486 21.8695 8.92693 21.8695C9.6767 21.8695 10.0155 21.372 10.1229 21.1676C10.3922 21.1126 11.321 20.9366 12.2784 20.913C13.2342 20.8858 14.159 21.0745 14.4209 21.1332C14.5033 21.2908 14.7204 21.6509 15.0665 21.8364C15.2567 21.9404 15.5215 22 15.7926 22H15.7927C16.0823 22 16.6331 21.9315 17.0691 21.4729C17.504 21.012 18.5906 20.4237 19.384 19.9941C19.5611 19.8982 19.7267 19.8085 19.872 19.7275C20.3177 19.4804 20.5609 19.1274 20.5392 18.7589C20.5211 18.4529 20.3185 18.1844 20.0105 18.0583ZM10.1436 17.9696C10.0881 17.5788 9.58536 17.1912 9.00313 16.7424L9.00273 16.7421C8.52677 16.3752 7.9874 15.9593 7.83879 15.6072C7.53158 14.8805 7.77374 13.6027 8.19597 12.9447C8.40454 12.6154 8.5749 12.1161 8.73969 11.6332L8.73991 11.6325C8.91788 11.1108 9.10195 10.5714 9.30778 10.3353C9.63375 9.96661 9.935 9.24929 9.98838 8.68398C10.2936 8.97539 10.7671 9.34516 11.2046 9.34516C11.2719 9.34516 11.3373 9.33638 11.3998 9.31874C11.6988 9.2324 12.1384 8.97848 12.5637 8.73282L12.5637 8.7328L12.565 8.73204C12.932 8.51998 13.3846 8.25847 13.5549 8.23466C13.8469 8.65395 15.5436 12.4088 15.717 13.6146C15.8542 14.5687 15.7093 15.3575 15.6364 15.6664C15.5778 15.6584 15.5079 15.6519 15.4344 15.6519C14.9619 15.6519 14.8367 15.9099 14.8041 16.0639C14.7203 16.4641 14.7115 17.7438 14.7106 18.0313C14.5397 18.2484 13.6755 19.2709 12.4348 19.4547C11.9294 19.5281 11.4574 19.5654 11.0321 19.5654C10.6686 19.5654 10.4366 19.5373 10.3402 19.5227L9.71677 18.8093C9.96261 18.6879 10.2084 18.4318 10.1436 17.9696ZM13.0873 7.57905C13.0811 7.60686 13.0679 7.61918 12.9214 7.69538C12.8474 7.73387 12.7553 7.78181 12.6401 7.85197L12.5616 7.89954C12.2513 8.08761 11.529 8.52546 11.3327 8.55119C11.1991 8.56916 11.1165 8.51735 10.9307 8.39112C10.8888 8.3626 10.8443 8.3323 10.7967 8.30181C10.4618 8.08207 10.2464 7.84004 10.2221 7.74541C10.3313 7.66102 10.6019 7.44981 10.7404 7.32476C11.0217 7.06325 11.3047 6.88751 11.4448 6.88751C11.4522 6.88751 11.4589 6.88803 11.4658 6.88934C11.6301 6.91833 12.0347 7.07975 12.3311 7.19798L12.3329 7.19872C12.47 7.25341 12.5883 7.30063 12.6716 7.33053C12.934 7.42063 13.0708 7.53591 13.0873 7.57905ZM15.4445 19.8001C15.5925 19.1325 15.763 18.2243 15.7354 17.6889C15.7291 17.5673 15.7183 17.4349 15.7079 17.3069C15.6884 17.0675 15.6595 16.7118 15.6893 16.6063C15.6952 16.6035 15.7018 16.6011 15.7091 16.5991C15.7103 16.9052 15.7768 17.5158 16.2651 17.7287C16.4106 17.7922 16.5769 17.8243 16.7593 17.8243C17.2484 17.8243 17.7911 17.5844 18.0134 17.3621C18.1443 17.2312 18.2544 17.0711 18.3315 16.9442C18.3484 16.9936 18.3587 17.0581 18.3533 17.1413C18.3242 17.5928 18.5436 18.1917 18.9612 18.4124L19.022 18.4444C19.1707 18.5224 19.5658 18.7298 19.5721 18.8282C19.5721 18.8282 19.5688 18.8398 19.5467 18.8602C19.4479 18.9506 19.1 19.1282 18.7635 19.3001L18.7634 19.3002L18.7627 19.3005C18.1653 19.6056 17.4881 19.9513 17.184 20.2712C16.7558 20.7218 16.2714 21.0245 15.979 21.0245C15.9438 21.0245 15.9117 21.0201 15.8832 21.011C15.5655 20.912 15.3041 20.4537 15.4445 19.8001ZM4.61752 18.097L4.61752 18.0969C4.58513 17.9453 4.55956 17.8257 4.58703 17.7097C4.60697 17.6238 5.03103 17.5318 5.21215 17.4925L5.21282 17.4923C5.46724 17.4371 5.73027 17.38 5.90232 17.2756C6.13517 17.1345 6.26127 16.8744 6.37249 16.6449L6.37287 16.6441C6.45327 16.4784 6.53631 16.3072 6.63511 16.251C6.64068 16.2477 6.64921 16.2439 6.66547 16.2439C6.85085 16.2439 7.23984 16.6336 7.46397 16.9824C7.52082 17.0703 7.62613 17.2465 7.74797 17.4505L7.74961 17.4533C8.11386 18.0627 8.61171 18.8957 8.87191 19.1752C9.10673 19.4268 9.48687 19.9105 9.39336 20.3254C9.3249 20.6473 8.96044 20.9091 8.87447 20.967C8.84326 20.9741 8.80463 20.9777 8.75919 20.9777C8.26043 20.9777 7.27315 20.5627 6.74272 20.3398L6.66422 20.3068C6.36811 20.1826 5.88475 20.1044 5.41726 20.0288L5.41687 20.0287L5.41508 20.0284L5.41502 20.0284C5.04311 19.9682 4.53515 19.8859 4.45083 19.8115C4.3824 19.7348 4.46172 19.4853 4.53174 19.2651L4.53182 19.2648C4.58224 19.1065 4.63431 18.9429 4.66283 18.7715C4.70325 18.4985 4.65579 18.2762 4.61764 18.0975L4.61752 18.097ZM13.5131 6.15738C13.5149 6.37496 13.4773 6.56028 13.3948 6.74943C13.3478 6.85727 13.2937 6.94788 13.2286 7.02633C13.2066 7.0158 13.1838 7.00569 13.1601 6.99599C13.0778 6.96086 13.0053 6.93189 12.9401 6.90729C12.891 6.88877 12.8501 6.87474 12.8105 6.86119L12.8103 6.86112C12.7974 6.85669 12.7846 6.85231 12.7717 6.84784C12.7838 6.83326 12.7995 6.81786 12.8163 6.80145C12.8524 6.76616 12.8933 6.72623 12.9123 6.67987C12.9546 6.57737 12.9752 6.47732 12.9792 6.35801C12.9792 6.35571 12.9795 6.35357 12.9799 6.35135C12.9803 6.34894 12.9807 6.34644 12.9807 6.34352C12.9831 6.22927 12.968 6.13155 12.9346 6.0315C12.8996 5.9264 12.8552 5.85096 12.7908 5.78809C12.7265 5.72536 12.6621 5.69694 12.5849 5.69434C12.5812 5.69407 12.5778 5.69407 12.5741 5.69407C12.5017 5.69434 12.4386 5.71935 12.3736 5.77374C12.3051 5.83087 12.2544 5.90399 12.2122 6.00581C12.1701 6.10763 12.1494 6.20849 12.1453 6.32849C12.1447 6.33314 12.1447 6.33724 12.1447 6.34202C12.1432 6.40803 12.1475 6.46844 12.1576 6.52707C12.0092 6.45313 11.8194 6.39915 11.6882 6.36785C11.6807 6.31113 11.6764 6.25277 11.6751 6.19141V6.17487C11.6727 5.95784 11.7083 5.77169 11.7918 5.58282C11.8753 5.39366 11.9785 5.25768 12.1239 5.14711C12.2694 5.03668 12.4125 4.98598 12.5819 4.9842H12.5898C12.7554 4.9842 12.8972 5.03299 13.0427 5.1385C13.1905 5.24592 13.2971 5.38 13.3829 5.56765C13.4671 5.75065 13.5075 5.92941 13.5116 6.14139C13.5116 6.14699 13.5116 6.15178 13.5131 6.15738ZM10.9456 6.39424C10.9665 6.387 10.9877 6.38044 11.0094 6.37415C11.0157 6.30226 11.0164 6.22805 11.0113 6.14933V6.14782C11.0009 5.96018 10.9638 5.80123 10.8937 5.64228C10.8237 5.48333 10.7402 5.37058 10.6299 5.28229C10.5281 5.20097 10.4297 5.16434 10.3195 5.16407C10.3102 5.16407 10.3009 5.16435 10.2915 5.16475C10.1697 5.17104 10.0689 5.22106 9.96868 5.32056C9.86836 5.41978 9.79934 5.54046 9.74768 5.70747C9.69616 5.87435 9.67771 6.03576 9.68809 6.2234V6.22491C9.6993 6.41256 9.73661 6.5715 9.80659 6.73018C9.86563 6.86466 9.93314 6.96634 10.0197 7.04753C10.0593 7.01814 10.0933 6.99313 10.122 6.97222C10.153 6.94965 10.1799 6.9285 10.2114 6.90379C10.2256 6.89259 10.2408 6.88066 10.2577 6.86753C10.2493 6.86152 10.2407 6.85468 10.2318 6.84703C10.1793 6.80179 10.1387 6.74289 10.1038 6.66034C10.0698 6.58011 10.0505 6.50071 10.0411 6.40518C10.0411 6.40319 10.0409 6.40142 10.0406 6.39964C10.0404 6.39786 10.0402 6.39609 10.0402 6.3941C10.0315 6.29557 10.037 6.20974 10.0576 6.1224C10.0784 6.0348 10.107 5.96879 10.1506 5.91576C10.1945 5.86246 10.2407 5.83526 10.2963 5.83048C10.3013 5.83007 10.3065 5.82993 10.3116 5.82993C10.3611 5.82938 10.406 5.84838 10.4534 5.88938C10.5058 5.93476 10.5457 5.99366 10.5814 6.07703C10.6147 6.15726 10.6348 6.23666 10.6444 6.33137C10.6444 6.3352 10.6444 6.33848 10.6449 6.34231C10.6519 6.41378 10.6507 6.47761 10.6418 6.54062C10.7328 6.48034 10.827 6.43524 10.9456 6.39424Z" fill="black"/>
</svg>

<svg xmlns="http://www.w3.org/2000/svg" width="24" height="24" fill="none" viewBox="0 0 24 24"><path fill="#000" fill-rule="evenodd" d="M20.0105 18.0583c-.5865-.2402-.8373-.5589-.8131-1.0345.025-.5552-.2899-.9618-.4395-1.1225.0903-.3451.3544-1.5393.0002-2.5764-.3806-1.1102-1.5425-2.8058-2.7415-4.4725-.4908-.6844-.514-1.4284-.5408-2.29l-.0001-.0008c-.0257-.8215-.0548-1.7526-.5129-2.7877C14.4646 2.6465 13.4649 2 12.2198 2c-.7407 0-1.5009.2315-2.086.635-1.198.8268-1.0397 2.6295-.9349 3.8224.0144.1634.0279.3177.0358.4494.0697 1.1683.0063 1.784-.0768 1.9712-.0535.1219-.3164.4681-.5952.8354l-.0039.005c-.289.3808-.6166.8121-.8851 1.2141-.3209.4844-.5799 1.2247-.8303 1.9407l-.0001.0002c-.1833.5239-.3564 1.0188-.525 1.3145a1.79 1.79 0 0 0-.1735 1.3446c-.121.084-.2956.2494-.443.5611-.1783.3803-.54.5847-1.292.7293-.3455.0707-.5838.216-.7084.4319-.1813.3142-.0826.7089.0075.9787.1331.3966.0502.6476-.1006 1.1033l-.0018.0055c-.0343.1038-.073.2211-.1123.3501-.063.2073-.0402.3958.0672.5602.284.4341 1.1128.5873 1.9659.688.5094.0604 1.0669.2642 1.6061.4613l.0007.0003c.5281.1929 1.0742.3925 1.5705.453.0755.0095.1503.0143.2223.0143.7498 0 1.0886-.4975 1.196-.7019.2693-.055 1.1981-.231 2.1555-.2546.9558-.0272 1.8806.1615 2.1425.2202.0824.1576.2995.5177.6456.7032.1902.104.455.1636.7261.1636h.0001c.2896 0 .8404-.0685 1.2764-.5271.4349-.4609 1.5215-1.0492 2.3149-1.4788.1771-.0959.3427-.1856.488-.2666.4457-.2471.6889-.6001.6672-.9686-.0181-.306-.2207-.5745-.5287-.7006m-9.8669-.0887c-.0555-.3908-.5582-.7784-1.1405-1.2272l-.0004-.0003c-.476-.3669-1.0153-.7828-1.164-1.1349-.3071-.7267-.065-2.0045.3573-2.6625.2085-.3293.3789-.8286.5437-1.3115l.0002-.0007c.178-.5217.362-1.0611.5679-1.2972.326-.3687.6272-1.086.6806-1.6513.3052.2914.7787.6612 1.2162.6612a.72.72 0 0 0 .1952-.0265c.299-.0863.7386-.3402 1.1639-.5859l.0013-.0008c.367-.212.8196-.4735.9899-.4973.292.4192 1.9887 4.1741 2.1621 5.3799.1372.9541-.0077 1.7429-.0806 2.0518a1.5 1.5 0 0 0-.202-.0145c-.4725 0-.5977.258-.6303.412-.0838.4002-.0926 1.6799-.0935 1.9674-.1709.2171-1.0351 1.2396-2.2758 1.4234-.5054.0734-.9774.1107-1.4027.1107-.3635 0-.5955-.0281-.6919-.0427l-.6234-.7134c.2458-.1214.4916-.3775.4268-.8397M13.0873 7.579c-.0062.0279-.0194.0402-.1659.1164a4.5 4.5 0 0 0-.2813.1566l-.0785.0475c-.3103.1881-1.0326.626-1.2289.6517-.1336.018-.2162-.0338-.402-.16a6 6 0 0 0-.134-.0894c-.3349-.2197-.5503-.4618-.5746-.5564.1092-.0844.3798-.2956.5183-.4206.2813-.2615.5643-.4373.7044-.4373a.1.1 0 0 1 .021.0018c.1643.029.5689.1904.8653.3087l.0018.0007c.1371.0547.2554.102.3387.1318.2624.0901.3992.2054.4157.2485m2.3572 12.2211c.148-.6676.3185-1.5758.2909-2.1112-.0063-.1216-.0171-.254-.0275-.382-.0195-.2394-.0484-.5951-.0186-.7006a.1.1 0 0 1 .0198-.0072c.0012.3061.0677.9167.556 1.1296.1455.0635.3118.0956.4942.0956.4891 0 1.0318-.2399 1.2541-.4622.1309-.1309.241-.291.3181-.4179.0169.0494.0272.1139.0218.1971-.0291.4515.1903 1.0504.6079 1.2711l.0608.032c.1487.078.5438.2854.5501.3838 0 0-.0033.0116-.0254.032-.0988.0904-.4467.268-.7832.4399l-.0001.0001-.0007.0003c-.5974.3051-1.2746.6508-1.5787.9707-.4282.4506-.9126.7533-1.205.7533a.32.32 0 0 1-.0958-.0135c-.3177-.099-.5791-.5573-.4387-1.2109M4.6175 18.097c-.0324-.1516-.058-.2712-.0305-.3872.02-.0859.444-.1779.6252-.2172l.0006-.0002c.2544-.0552.5175-.1123.6895-.2167.2329-.1411.359-.4012.4702-.6307l.0004-.0008c.0804-.1657.1634-.3369.2622-.3931a.056.056 0 0 1 .0304-.0071c.1854 0 .5743.3897.7985.7385.0568.0879.1621.2641.284.4681l.0016.0028c.3643.6094.8621 1.4424 1.1223 1.7219.2348.2516.615.7353.5215 1.1502-.0685.3219-.433.5837-.519.6416a.53.53 0 0 1-.1152.0107c-.4988 0-1.486-.415-2.0165-.6379l-.0785-.033c-.296-.1242-.7794-.2024-1.247-.278l-.0003-.0001-.0018-.0003c-.372-.0602-.88-.1425-.9643-.2169-.0684-.0767.011-.3262.081-.5464v-.0003c.0504-.1583.1025-.3219.131-.4933.0404-.273-.007-.4953-.0452-.674zm8.8956-11.9396c.0018.2176-.0358.4029-.1183.592-.047.1079-.1011.1985-.1662.277a1.3 1.3 0 0 0-.0685-.0304 6 6 0 0 0-.22-.0887 4 4 0 0 0-.1296-.0461h-.0002l-.0386-.0134a.7.7 0 0 1 .0446-.0464c.0361-.0352.077-.0752.096-.1215.0423-.1025.0629-.2026.0669-.3219a.04.04 0 0 1 .0007-.0066l.0008-.0079a.89.89 0 0 0-.0461-.312c-.035-.1051-.0794-.1805-.1438-.2434-.0643-.0627-.1287-.0912-.2059-.0938q-.0054-.0003-.0108-.0002c-.0724.0002-.1355.0253-.2005.0796-.0685.0572-.1192.1303-.1614.2321s-.0628.2027-.0669.3227c-.0006.0046-.0006.0087-.0006.0135a.95.95 0 0 0 .0129.185c-.1484-.0739-.3382-.1279-.4694-.1592a1.6 1.6 0 0 1-.0131-.1764V6.175c-.0024-.217.0332-.4032.1167-.592.0835-.1892.1867-.3252.3321-.4358.1455-.1104.2886-.1611.458-.1629h.0079c.1656 0 .3074.0488.4529.1543.1478.1074.2544.2415.3402.4292.0842.183.1246.3617.1287.5737 0 .0056 0 .0104.0015.016m-2.5675.2368a1.3 1.3 0 0 1 .0638-.02 1.5 1.5 0 0 0 .0019-.2249v-.0015c-.0104-.1876-.0475-.3466-.1176-.5055-.07-.159-.1535-.2717-.2638-.36-.1018-.0813-.2002-.118-.3104-.1182l-.028.0006c-.1218.0063-.2226.0564-.3228.1559-.1003.0992-.1694.2199-.221.3869-.0515.1669-.07.3283-.0596.5159v.0015c.0112.1877.0485.3466.1185.5053.059.1345.1265.2361.2131.3173q.0593-.044.1023-.0753c.031-.0225.0579-.0437.0894-.0684l.0463-.0363a.4.4 0 0 1-.0259-.0205c-.0525-.0452-.0931-.1041-.128-.1867-.034-.0802-.0533-.1596-.0627-.2551a.03.03 0 0 0-.0005-.0056q-.0003-.0025-.0004-.0055c-.0087-.0985-.0032-.1844.0174-.2717.0208-.0876.0494-.1536.093-.2066.0439-.0533.0901-.0805.1457-.0853a.2.2 0 0 1 .0153-.0006c.0495-.0005.0944.0185.1418.0595.0524.0454.0923.1043.128.1876a.87.87 0 0 1 .063.2544c0 .0038 0 .007.0005.011a.82.82 0 0 1-.0031.1982c.091-.0603.1852-.1054.3038-.1464" clip-rule="evenodd"/></svg>
